images/tel-svg.svg

<svg width="13" height="13" fill="none" xmlns="http://www.w3.org/2000/svg"><path d="M12.7612 10.1832L9.79479 7.48612c-.14023-.12744-.32449-.19541-.51388-.18956-.1894.00586-.36911.08508-.50119.22094L7.03345 9.31338c-.42033-.08027-1.26537-.3437-2.13522-1.21136-.86986-.87057-1.13329-1.71779-1.21137-2.1352l1.79443-1.74699c.13603-.13199.21537-.31173.22123-.50118.00585-.18945-.06223-.37374-.18985-.51388L2.81628.239128C2.6886.0985498 2.51116.0132785 2.32162.00142429 2.13209-.0104299 1.9454.0520669 1.80121.175641L.217669 1.53368c-.1261645.12662-.2014676.29514-.21162531.4736C-.00490243 2.18971-.213608 6.5112 3.13736 9.8636 6.0607 12.7862 9.72254 13 10.731 13c.1475 0 .2379-.0044.262-.0058.1785-.01.3469-.0857.4729-.2124l1.3573-1.5842c.1241-.1438.187-.3303.1754-.5198-.0115-.1896-.0968-.367-.2374-.4946z" fill="#FFBD54"/></svg>

<svg width="13" height="13" viewBox="0 0 13 13" fill="none" xmlns="http://www.w3.org/2000/svg">
<path d="M12.7612 10.1832L9.79479 7.48612C9.65456 7.35868 9.4703 7.29071 9.28091 7.29656C9.09151 7.30242 8.9118 7.38164 8.77972 7.5175L7.03345 9.31338C6.61312 9.23311 5.76808 8.96968 4.89823 8.10202C4.02837 7.23145 3.76494 6.38423 3.68686 5.96682L5.48129 4.21983C5.61732 4.08784 5.69666 3.9081 5.70252 3.71865C5.70837 3.5292 5.64029 3.34491 5.51267 3.20477L2.81628 0.239128C2.6886 0.0985498 2.51116 0.0132785 2.32162 0.00142429C2.13209 -0.0104299 1.9454 0.0520669 1.80121 0.175641L0.217669 1.53368C0.0915045 1.6603 0.0162014 1.82882 0.00604369 2.00728C-0.00490243 2.18971 -0.213608 6.5112 3.13736 9.8636C6.0607 12.7862 9.72254 13 10.731 13C10.8785 13 10.9689 12.9956 10.993 12.9942C11.1715 12.9842 11.3399 12.9085 11.4659 12.7818L12.8232 11.1976C12.9473 11.0538 13.0102 10.8673 12.9986 10.6778C12.9871 10.4882 12.9018 10.3108 12.7612 10.1832Z" fill="#FFBD54"/>
</svg>
